X: 1300
T: Kürdîlihicazkâr Sazsemâîsi
C: Tatyos Efendi
O: Turkey
F: http://compmusic.upf.edu/node/140
N: kurdilihicazkar--sazsemaisi--aksaksemai----tatyos_efendi
N: makam= kurdilihicazkar
N: form= sazsemaisi
N: usul= aksaksemai = 10/8
M: 10/8
L: 1/16
K: C _B _e _A 
Q: 1/4=132
%%MIDI tuningsystem comma53
G4 g2ga gfe3/2d/ efg4z2  | g2a2 c'2b3ag3fgf edec  | 
w:  1. HANE  |   | 
B3e dfe3gf3ag4fe  | e3c' bag3fed efg4z2  | 
w:   |   | 
a2g2 f2e3dcB cde4z2  | d2e2 g2f3ded ecd4z2  | 
w:  TESLİM  |   | 
G4 e2d3cc3/2e/ dcc4z2  | Bcde dcBd cBBA AGBc defg  | 
w:   |   | 
a2g2 f2e3dcB cde4z2  | d2e2 g2f3ded ecd4z2  | 
w:  TESLİM  |   | 
G4 e2d3cc3/2e/ dcc4z2  | Bcde dcBd cBBA AGG4z2  | 
w:   |   | 
G4 d2d_7/8e dcdc _1/4Bcde dedc  | \
w:  2. HANE  | 
_1/4Bcd_7/8e dcB3cB_7/8A AGG4^F2  | 
w:   | 
G2_7/8A2 _1/4B2c3GA2 B2c2 d2_7/8e2  | \
w:   | 
c2d2 _7/8e2^f3ee_1/4b _7/8agg4z2  | 
w:   | 
a2g2 f2e3dcB cde4z2  | d2e2 g2f3ded ecd4z2  | 
w:  TESLİM  |   | 
G4 e2d3cc3/2e/ dcc4z2  | Bcde dcBd cBBA AGBc defg  | 
w:   |   | 
a2g2 f2e3dcB cde4z2  | d2e2 g2f3ded ecd4z2  | 
w:  TESLİM  |   | 
G4 e2d3cc3/2e/ dcc4z2  | Bcde dcBd cBBA AGG4z2  | 
w:   |   | 
=ede2 c2B4ag afg4z2  | g2a2 =a2b3g_ag f_1/4ef4z2  | 
w:  3. HANE  |   | 
f2_1/4e2 f2a3gf3_7/8ed2 ^c2d2  | _7/8e4 ^f2g2 fee_1/4b _7/8agg4z2  | 
w:   |   | 
a2g2 f2e3dcB cde4z2  | d2e2 g2f3ded ecd4z2  | 
w:  TESLİM  |   | 
G4 e2d3cc3/2e/ dcc4z2  | Bcde dcBd cBBA AGBc defg  | 
w:   |   | 
a2g2 f2e3dcB cde4z2  | d2e2 g2f3ded ecd4z2  | 
w:  TESLİM  |   | 
G4 e2d3cc3/2e/ dcc4z2  | Bcde dcBd cBBA AGG4z2  | 
w:   |   | 
z24  | f3g(3a2g2f2(3e2d2c2_1/4e3fg4z4  | \
w:  |  4. HANE  | 
(3g2_7/8a2_1/4b2(3c'2b2a2(3a2g2f2(3b2a2g2g4z4  | 
w:   | 
d3_1/4ef3ef3ef3{a}g(3a2g2f2(3_e2d2c2  | \
w:   | 
(3a2g2f2(3e2d2c2B3GA3FG4z4  | 
w:   | 
f3g(3a2g2f2(3e2d2c2_1/4e3fg4z4  | \
w:   | 
(3g2_7/8a2_1/4b2(3c'2b2a2(3a2g2f2(3b2a2g2g4z4  | 
w:   | 
d3_1/4ef3ef3ef3{a}g(3a2g2f2(3_e2d2c2  | \
w:   | 
(3a2g2f2(3e2d2c2B3GA3FG4z4  | 
w:   | 
(3a2g2f2(3e2d2c2(3B2c2d2(3e2d2f2e4z4  | \
w:   | 
d3e_1/4e3f^f3g(3_7/8a2g2f2g6c'2  | 
w:   | 
c'3ba3gf3e{f}d3ec6B2  | (3B2c2d2(3e2d2c2B3AA3GG4z4  | 
w:   |   | 
(3a2g2f2(3e2d2c2(3B2c2d2(3e2d2f2e4z4  | \
w:   | 
d3e_1/4e3f^f3g(3_7/8a2g2f2g6c'2  | 
w:   | 
c'3ba3gf3e{f}d3ec6B2  | (3B2c2d2(3e2d2c2B3AA3GG4z4  | 
w:   |   | 
z20  | a2g2 f2e3dcB cde4z2  | d2e2 g2f3ded ecd4z2  | 
w:  |  TESLİM  |   | 
G4 e2d3cc3/2e/ dcc4z2  | Bcde dcBd cBBA AGBc defg  | 
w:   |   | 
a2g2 f2e3dcB cde4z2  | d2e2 g2f3ded ecd4z2  | 
w:  TESLİM  |   | 
G4 e2d3cc3/2e/ dcc4z2  | Bcde dcBd cBBA AGG4z2  | 
w:   |   | 
|


